X: 1
T: Father O'Flynn
R: jig
M: 6/8
L: 1/8
K: Dmaj
|:d|dAF DFA|Bed cBA|dcd ede|faf ecA|
dAF DFA|Bed cBA|dcd ede|fdd d2:|
|:g|fdf fga|ece efe|dcd fed|cAA A2=c|
BGB Bcd|AFA ABc|dcd efg|fdd d2:||


Tune 1080	Setting 24491

